X: 29
T: Slow broke the Light
R: march, air
M: 2/4
L: 1/8
Z: 2010 John Chambers <jc:trillian.mit.edu>
B: Anonymous manuscript tune book (1800-1840) p.4
F: http://www.asaplive.com/archive/browse_by_collection.asp
N: The asaplive.com web site is complex, and links to its files don't usually work.
K: G
G2G>A | B2GB | d2c>c | B2GB |\
d2dd | e2fg | B2c>A |1 G2 zD :|2 G2 z ||
A |\
A2B^c | df zA | A2G>G | F3A |\
(B^c)de | fd2B | (A<d) ^c<e | d3d |
egfe | d2BG | (eg)fe | d2GB |\
d2dd | e2fg | g<d c/B/c/A/ | G2z2 |]


%%sep 5 1 500

